Default.style/bar.svg

<svg width="26" height="32" xmlns="http://www.w3.org/2000/svg"><path d="M20.5 1s-1.531.031-2 1c-.331.684-.794 1.782-1.287 3H15.9l1.6-4s.562-1 2-1h6v1h-5Zm0 5h3l-10 11v12c-.346.605 5 2 5 2v1h-13v-1s5.346-1.395 5-2V17L.5 6h20Zm-5.4 1H3.5l4 4h6l1.2-3h1.325a377.936 377.936 0 0 0-1.149 3H16.5l4-4h-5.4Z" fill="#888" fill-rule="evenodd"/></svg>

<?xml version="1.0" encoding="UTF-8" standalone="no"?>
<svg width="26px" height="32px" viewBox="0 0 26 32" version="1.1" xmlns="http://www.w3.org/2000/svg" xmlns:xlink="http://www.w3.org/1999/xlink" xmlns:sketch="http://www.bohemiancoding.com/sketch/ns">
    <!-- Generator: Sketch 3.2.2 (9983) - http://www.bohemiancoding.com/sketch -->
    <title>cocktail</title>
    <desc>Created with Sketch.</desc>
    <defs></defs>
    <g id="p" stroke="none" stroke-width="1" fill="none" fill-rule="evenodd" sketch:type="MSPage">
        <g id="cocktail" sketch:type="MSLayerGroup" fill="#888888">
            <path d="M20.5,1 C20.5,1 18.969,1.031 18.5,2 C18.169,2.684 17.706,3.782 17.213,5 L15.9,5 L17.5,1 C17.5,1 18.062,0 19.5,0 L25.5,0 L25.5,1 L20.5,1 L20.5,1 Z M20.5,6 L23.5,6 L13.5,17 L13.5,29 C13.154,29.605 18.5,31 18.5,31 L18.5,32 L5.5,32 L5.5,31 C5.5,31 10.846,29.605 10.5,29 L10.5,17 L0.5,6 L12.5,6 L15.5,6 L16.811,6 L20.5,6 L20.5,6 Z M15.1,7 L12.5,7 L3.5,7 L7.5,11 L13.5,11 L14.7,8 L16.025,8 C15.568,9.178 15.156,10.259 14.876,11 L16.5,11 L20.5,7 L18.5,7 L16.415,7 L15.1,7 L15.1,7 Z" id="Shape" sketch:type="MSShapeGroup"></path>
        </g>
    </g>
</svg>
